X: 1501
T: Andy De Jarlis'
R: jig
M: 6/8
K: Emajor
F|"E"EGB EGB|"E"EGB "A"c2 B|"E"EGB EGB|"D"=DFA "Bm"B2 A|
"E"EGB EGB|"E"EGB "A"c2 a|"E"g2 f "B"Bcd|"E"e3 e2:|
|:a|"E"gbg efg|"A"aba c2 e|"F#m"f2 g f2 e|"B"dcB "A"c2 B|
"E"gbg efg|"A"aba c2 a|"E"g2 f "B"Bcd|"E"e3 e2:|

